X: 1884
T: Sporting Paddy
B: australian traditional tunes wiki
M:4/4
L:1/8
R: Reel
Q: 1/4=100
K:Amix
V:1 
|:"A"e2c<A e2c<A|"G"G2GF EFG2|"D"A2 AB "C"=cBcd|"A"eaag edd2:|
|:"A"ea(ag) ea(ag)|"G"ef(gf) (ef)g2|"A"a2ge "G"d2 cd|"A"eaag edd2:|
% abcbook-tune_id 6342d53a02200cd3a1368e24


% abcbook-boost 0
% abcbook-tablature 
% abcbook-transpose 
% abcbook-lastupdated 1665324390374
% abcbook-soundfonts 
% abcbook-repeats 1
% NFF Book 2018

